X:1011
T:Sunset On the St Lawrence
C:Angus Fitchet
S:BBC Radio Scotland Documentary
Z:Nigel Gatherer
L:1/4
M:3/4
K:C
EF^F | G3 | G3 | G3 | EF^F | G3 | B2A | B,3 | 
FG^G | A3 | A3 | A3 | FG^G | A3 | c2B | E3 |
EF^F | G3 | G3 | G3 | G^FG | _B3 | A2E | F3- | F2
E | DEF | Ace | e3 | d2A | e3 | d3 | c3- | c ||
c'c' | b2a | b2a | B3- | Bbb | a2g | a2g | c3- | cBA |
Bzf | fzf | f3- | fed | c2g | ^f2a | g3- | g
c'c' | b2a | b2a | B3- | Bbb | a2g | a2g | c3- | cde |
_e3 | ^F3 | G3- | GBd | a3 | B3 | c3 ||
EF^F | G3 | G3 | G3 | EF^F | G3 | B2A | B,3 | 
FG^G | A3 | A3 | A3 | FG^G | A3 | c2B | E3 |
EF^F | G3 | G3 | G3 | GFG | _B3 | A2E | F3- | F2
E | DEF | Ace | e3 | d2A | e3 | d3 | c3- | c2 ||
z | A3 | c3 | A3 | c3 | A2c | f2c | _B3- | _B3 |
G3 | _B3 | G3 | _B3 | _B2c | e2d | A3- | A3 |
A3 | c3 | A3 | c3 | A2_B | =B2 c | c3 | a3 |
g3 | d3 | f3 | A3 | A3 | A2G | F3 ||
EF^F | G3 | G3 | G3 | EF^F | G3 | B2A | B,3 | 
FG^G | A3 | A3 | A3 | FG^G | A3 | c2B | E3 |
EF^F | G3 | G3 | G3 | GFG | _B3 | A2E | F3- | F2
E | DEF | Ace | e3 | d2A | e3 | d3 | ceg | c'3 |]
<end>
<start>
